packages/foundations/assets/icons/functional/images/transportation/car_12_inverted.svg

<svg width="12" height="12" viewBox="0 0 12 12" fill="none" xmlns="http://www.w3.org/2000/svg">
<g clip-path="url(#clip0_2214_6708)">
<path fill-rule="evenodd" clip-rule="evenodd" d="M8.17842 2.08267C8.68298 2.08267 9.16274 2.43923 9.29389 2.92873C9.38132 3.25507 9.54394 3.97305 9.78175 5.08267H10.8V6.28267H10.137C10.047 7.10203 9.98696 7.62783 9.95693 7.86007C9.92689 8.0923 9.80808 8.3315 9.60049 8.57765V9.9173H8.09995V9.12727C7.39995 9.23087 6.69995 9.28267 5.99995 9.28267C5.29995 9.28267 4.59995 9.23087 3.89995 9.12727L3.89591 9.9173H2.39995L2.39994 8.57823C2.18647 8.33437 2.0615 8.05546 2.02502 7.7415C1.98854 7.42754 1.93432 6.94126 1.86235 6.28267H1.19995V5.08267H2.21755L2.67425 3.0237C2.81705 2.54065 3.23995 2.08671 3.77667 2.08671C4.31338 2.08671 7.67386 2.08267 8.17842 2.08267ZM5.18224 6.88777C5.02721 6.91128 4.89516 7.01438 4.83475 7.15908L4.65256 7.88377C4.63063 8.08205 4.72305 8.26218 4.94388 8.35266C5.16471 8.44315 5.43918 8.28949 5.51544 8.10565L5.60095 7.78267H6.39835L6.48218 8.10006C6.56436 8.30592 6.78808 8.42449 7.00909 8.36924C7.23011 8.31398 7.3717 8.10408 7.34734 7.88377L7.16515 7.15908C7.10474 7.01438 6.97269 6.91128 6.81766 6.88777H5.18224ZM2.95087 6.49459C2.70872 6.43868 2.46709 6.58967 2.41118 6.83183C2.35993 7.0538 2.48253 7.27534 2.68984 7.35378L3.62535 7.57398C3.86751 7.62988 4.10914 7.4789 4.16505 7.23674C4.21629 7.01476 4.09369 6.79323 3.88638 6.71478L2.95087 6.49459ZM9.59505 6.83183C9.5438 6.60985 9.33649 6.46448 9.11577 6.48485L8.17842 6.69704C7.93626 6.75295 7.78527 6.99458 7.84118 7.23674C7.89243 7.45872 8.09973 7.60409 8.32045 7.58371L9.25781 7.37152C9.49996 7.31561 9.65095 7.07398 9.59505 6.83183ZM8.3746 3.10267H3.62591L3.23995 5.08267H8.75995L8.3746 3.10267Z" fill="#1A1C1F"/>
</g>
<defs>
<clipPath id="clip0_2214_6708">
<rect width="12" height="12" fill="white"/>
</clipPath>
</defs>
</svg>

<svg xmlns="http://www.w3.org/2000/svg" width="12" height="12" fill="none"><g clip-path="url(#a)"><path fill="#1A1C1F" fill-rule="evenodd" d="M8.178 2.083c.505 0 .985.356 1.116.846q.13.489.488 2.154H10.8v1.2h-.663q-.135 1.229-.18 1.577t-.357.718v1.34H8.1v-.79a14.3 14.3 0 0 1-4.2 0l-.004.79H2.4v-1.34a1.5 1.5 0 0 1-.375-.836l-.163-1.46H1.2v-1.2h1.018l.456-2.058c.143-.483.566-.937 1.103-.937zM5.182 6.888a.45.45 0 0 0-.347.271l-.182.725c-.022.198.07.378.29.469.222.09.496-.064.572-.247l.086-.323h.797l.084.317a.45.45 0 0 0 .865-.216l-.182-.725a.45.45 0 0 0-.347-.271zm-2.231-.393a.45.45 0 0 0-.261.859l.935.22a.45.45 0 0 0 .261-.86zm6.644.337a.45.45 0 0 0-.48-.347l-.937.212a.45.45 0 0 0 .142.887l.938-.212a.45.45 0 0 0 .337-.54m-1.22-3.73h-4.75l-.385 1.98h5.52z" clip-rule="evenodd"/></g><defs><clipPath id="a"><path fill="#fff" d="M0 0h12v12H0z"/></clipPath></defs></svg>
